src/assets/duotone/Archive1.svg

<svg width="24" height="24" viewBox="0 0 24 24"  xmlns="http://www.w3.org/2000/svg">
<path opacity="0.4" d="M16.8198 2H7.17982C5.04982 2 3.31982 3.74 3.31982 5.86V19.95C3.31982 21.75 4.60982 22.51 6.18982 21.64L11.0698 18.93C11.5898 18.64 12.4298 18.64 12.9398 18.93L17.8198 21.64C19.3998 22.52 20.6898 21.76 20.6898 19.95V5.86C20.6798 3.74 18.9498 2 16.8198 2Z" />
<path d="M11.9998 10.2796C10.9798 10.2796 9.95976 10.0996 8.98976 9.74956C8.59976 9.60956 8.39976 9.17956 8.53976 8.78956C8.68976 8.39956 9.11976 8.19956 9.50976 8.33956C11.1198 8.91956 12.8898 8.91956 14.4998 8.33956C14.8898 8.19956 15.3198 8.39956 15.4598 8.78956C15.5998 9.17956 15.3998 9.60956 15.0098 9.74956C14.0398 10.0996 13.0198 10.2796 11.9998 10.2796Z" />
</svg>

<?xml version="1.0" encoding="UTF-8"?>
<svg width="24" height="24" viewBox="0 0 24 24" xmlns="http://www.w3.org/2000/svg">
 <path d="m16.82 2h-9.64c-2.13 0-3.86 1.74-3.86 3.86v14.09c0 1.8 1.29 2.56 2.87 1.69l4.88-2.71c0.52-0.29 1.36-0.29 1.87 0l4.88 2.71c1.58 0.88 2.87 0.12 2.87-1.69v-14.09c-0.01-2.12-1.74-3.86-3.87-3.86z" opacity=".4"/>
 <path d="m12 10.28c-1.02 0-2.04-0.18-3.01-0.53004-0.39-0.14-0.59-0.57-0.45-0.96 0.15-0.39 0.58-0.59 0.97-0.45 1.61 0.58 3.38 0.58 4.99 0 0.39-0.14 0.82 0.06 0.96 0.45s-0.06 0.82-0.45 0.96c-0.97 0.35004-1.99 0.53004-3.01 0.53004z"/>
</svg>
